Newaita-dark/apps/32/mintbackup.svg

<svg height="32pt" viewBox="0 0 32 32" width="32pt" xmlns="http://www.w3.org/2000/svg" xmlns:xlink="http://www.w3.org/1999/xlink"><linearGradient id="a"><stop offset="0" stop-opacity=".313725"/><stop offset=".222222" stop-opacity=".27451"/><stop offset="1" stop-opacity="0"/></linearGradient><radialGradient id="b" cx="450.90894" cy="189.57936" gradientTransform="matrix(.00000017 -.0781325 -.140638 -.0000001 44.523152 63.595332)" gradientUnits="userSpaceOnUse" r="21.166656" xlink:href="#a"/><radialGradient id="c" cx="450.90894" cy="189.57936" gradientTransform="matrix(-.00000017 .0781325 .140638 .0000001 -12.770121 -7.527481)" gradientUnits="userSpaceOnUse" r="21.166656" xlink:href="#a"/><radialGradient id="d" cx="450.90894" cy="189.57936" gradientTransform="matrix(-.00000017 -.0781325 .140638 -.0000001 -12.770121 63.595332)" gradientUnits="userSpaceOnUse" r="21.166656" xlink:href="#a"/><radialGradient id="e" cx="450.90894" cy="189.57936" gradientTransform="matrix(.00000017 .0781325 -.140638 .0000001 44.52315 -7.527482)" gradientUnits="userSpaceOnUse" r="21.166656" xlink:href="#a"/><linearGradient id="f" gradientTransform="matrix(.0133601 0 0 .062506 12.465386 13.438784)" gradientUnits="userSpaceOnUse" x1="255.32306" x2="255.32304" y1="233.5" y2="254.66666"><stop offset="0" stop-opacity=".27451"/><stop offset="1" stop-opacity="0"/></linearGradient><linearGradient id="g" gradientUnits="userSpaceOnUse" x1="254" x2="254" y1="-168.66667" y2="233.5"><stop offset="0" stop-color="#aed581"/><stop offset="1" stop-color="#9ccc65"/></linearGradient><linearGradient id="h" gradientUnits="userSpaceOnUse" x1="15.87648" x2="15.87648" y1="28.0338647916" y2="2.89610346856"><stop offset="0" stop-color="#424242"/><stop offset="1" stop-color="#616161"/></linearGradient><path d="m18.191406 28.035156h2.648438v-1.324218h-2.648438zm0 0" fill="url(#b)"/><path d="m13.5625 28.035156h-2.648438v1.320313h2.648438zm0 0" fill="url(#c)"/><path d="m13.5625 28.035156h-2.648438v-1.324218h2.648438zm0 0" fill="url(#d)"/><path d="m18.191406 28.035156h2.648438v1.320313h-2.648438zm0 0" fill="url(#e)"/><path d="m13.5625 27.703125h4.628906v1.652344h-4.628906zm0 0" fill="url(#f)"/><path d="m253.975747-168.691922c111.051895 0 201.105795 90.0539 201.105795 201.105795s-90.0539 201.105796-201.105795 201.105796c-111.051896 0-201.043302-90.053901-201.043302-201.105796s89.991406-201.105795 201.043302-201.105795zm0 0" fill="url(#g)" stroke="#333" stroke-linecap="round" stroke-width="3" transform="matrix(.062506 0 0 .062506 0 13.438783)"/><path d="m15.875 28.035156c-6.960938 0-12.566406-5.605468-12.566406-12.570312 0-.039063 0-.082032 0-.121094.066406 6.902344 5.644531 12.445312 12.566406 12.445312s12.503906-5.542968 12.570312-12.445312v.121094c0 6.964844-5.605468 12.570312-12.570312 12.570312zm0 0" fill-opacity=".196078"/><path d="m15.875 2.894531c-6.960938 0-12.566406 5.605469-12.566406 12.570313v.125c.066406-6.90625 5.644531-12.449219 12.566406-12.449219s12.503906 5.542969 12.570312 12.449219c0-.042969 0-.082032 0-.125 0-6.964844-5.605468-12.570313-12.570312-12.570313zm0 0" fill="#fff" fill-opacity=".392157"/><path d="m15.875 2.800781c-7.011719 0-12.660156 5.652344-12.660156 12.664063 0 7.011718 5.648437 12.664062 12.660156 12.664062 7.015625 0 12.664062-5.652344 12.664062-12.664062 0-7.011719-5.648437-12.664063-12.664062-12.664063zm0 .1875c6.914062 0 12.476562 5.5625 12.476562 12.476563 0 6.914062-5.5625 12.476562-12.476562 12.476562-6.910156 0-12.472656-5.5625-12.472656-12.476562 0-6.914063 5.5625-12.476563 12.472656-12.476563zm0 0" fill="#212121"/><path d="m16.195312 4.878906c-.125.003906-.25.039063-.367187.121094l-3.308594 2.316406c-.375.261719-.375.820313 0 1.082032l3.308594 2.316406c.109375.074218.238281.117187.371094.117187.371093.003907.667969-.292969.667969-.660156v-1.289063c3.355468.328126 5.957031 3.140626 5.957031 6.582032 0 2.433594-1.300781 4.550781-3.246094 5.699218l.410156.289063c.453125.316406.714844.796875.792969 1.304687 2.421875-1.519531 4.027344-4.210937 4.027344-7.292968 0-4.542969-3.488282-8.238282-7.941406-8.574219v-1.347656c0-.386719-.308594-.65625-.648438-.664063-.007812 0-.015625 0-.023438 0zm-5.222656 3.296875c-2.421875 1.515625-4.027344 4.207031-4.027344 7.289063 0 4.542968 3.488282 8.238281 7.941407 8.574218v1.347657c0 .535156.601562.847656 1.039062.542969l3.308594-2.316407c.375-.261719.375-.820312 0-1.082031l-3.308594-2.316406c-.109375-.074219-.238281-.117188-.371093-.117188-.371094-.003906-.667969.292969-.667969.660156v1.289063c-3.355469-.328125-5.957031-3.140625-5.957031-6.582031 0-2.433594 1.300781-4.550782 3.246093-5.699219l-.410156-.289063c-.453125-.316406-.714844-.796874-.792969-1.300781zm0 0" fill="url(#h)"/><path d="m16.195312 4.878906c-.125.003906-.25.039063-.367187.121094l-3.308594 2.316406c-.238281.167969-.324219.453125-.257812.707032.035156-.144532.121093-.28125.257812-.375l3.308594-2.316407c.117187-.082031.242187-.117187.367187-.121093h.023438c.339844.007812.648438.277343.648438.664062v-.332031c0-.386719-.308594-.65625-.648438-.664063-.007812 0-.015625 0-.023438 0zm.671876 2.011719v.332031c4.398437.332032 7.851562 3.941406 7.9375 8.402344 0-.054688.003906-.105469.003906-.160156 0-4.542969-3.488282-8.238282-7.941406-8.574219zm-5.894532 1.285156c-2.421875 1.515625-4.027344 4.207031-4.027344 7.289063 0 .054687 0 .109375.003907.164062.054687-3.011718 1.644531-5.632812 4.023437-7.125.078125.507813.339844.988282.792969 1.304688l.160156.113281c.082031-.054687.164063-.105469.25-.15625l-.410156-.289063c-.453125-.316406-.714844-.796874-.792969-1.300781zm11.847656 7.523438c-.082031 2.335937-1.359374 4.351562-3.242187 5.464843l.25.175782c1.746094-1.136719 2.914063-3.078125 2.992187-5.308594v.070312c0-.054687.003907-.109374.003907-.164062 0-.082031-.003907-.160156-.003907-.238281zm-13.886718 0c0 .078125-.003906.160156-.003906.238281 0 .054688 0 .113281.003906.167969 0-.023438 0-.046875 0-.074219.117187 3.335938 2.675781 6.027344 5.953125 6.347656v-.332031c-3.277344-.320313-5.835938-3.011719-5.953125-6.347656zm6.621094 4.398437c-.371094-.003906-.667969.292969-.667969.660156v.332032c0-.367188.296875-.667969.667969-.664063.132812.003907.261718.042969.371093.121094l3.308594 2.316406c.136719.09375.222656.230469.257813.375.066406-.253906-.019532-.539062-.257813-.707031l-3.308594-2.316406c-.109375-.074219-.238281-.117188-.371093-.117188zm0 0" fill="#fff" fill-opacity=".392157"/><path d="m12.328125 8.15625c-.164063.285156-.101563.667969.191406.871094l3.308594 2.316406c.109375.078125.238281.117188.371094.121094.371093.003906.667969-.296875.667969-.664063v-.660156c0 .367187-.296876.664063-.667969.660156-.132813 0-.261719-.042969-.371094-.117187l-3.308594-2.316406c-.082031-.058594-.144531-.132813-.191406-.210938zm4.539063.695312v.660157c3.246093.320312 5.785156 2.960937 5.949218 6.25.003906-.109375.007813-.21875.007813-.328125 0-3.441406-2.601563-6.253906-5.957031-6.582032zm-5.175782 1.199219c-1.675781 1.199219-2.761718 3.160157-2.761718 5.382813 0 .109375.003906.21875.007812.328125.113281-2.292969 1.382812-4.269531 3.238281-5.367188l-.410156-.289062c-.027344-.015625-.050781-.035157-.074219-.054688zm13.109375 5.710938c-.109375 2.941406-1.683593 5.5-4.019531 6.960937-.070312-.476562-.3125-.929687-.71875-1.246094-.15625.113282-.316406.21875-.484375.316407l.410156.289062c.453125.316407.714844.796875.792969 1.304688 2.421875-1.519531 4.027344-4.210938 4.027344-7.292969 0-.109375-.003906-.222656-.007813-.332031zm-17.847656.003906c-.003906.109375-.007813.21875-.007813.328125 0 4.542969 3.488282 8.238281 7.941407 8.574219v-.660157c-4.34375-.328124-7.769531-3.855468-7.933594-8.242187zm12.472656 7.605469c-.046875.082031-.109375.152344-.191406.210937l-3.308594 2.316407c-.4375.304687-1.039062-.007813-1.039062-.542969v.660156c0 .535156.601562.851563 1.039062.542969l3.308594-2.316406c.292969-.203126.355469-.585938.191406-.871094zm0 0" fill-opacity=".235294"/><path d="m979.276575 295.011202c-7.558334.236198-15.116667 2.361979-22.202605 7.322135l-200.059638 140.065366c-22.675 15.825261-22.675 49.601564 0 65.426824l200.059638 140.065367c6.613542 4.48776 14.408073 7.085937 22.438803 7.085937 22.438802.236198 40.389844-17.714844 40.389844-39.917448v-77.945314c202.894013 19.840626 360.201827 189.903128 360.201827 397.993495 0 147.151304-78.653907 275.170576-196.280471 344.612765l24.800782 17.478646c27.398958 19.132031 43.224219 48.184375 47.948177 78.890105 146.442711-91.880991 243.520056-254.621358 243.520056-440.981516 0-274.698181-210.924743-498.141413-480.190371-518.454434v-81.488282c0-23.383594-18.659636-39.681251-39.208855-40.153646-.472395 0-.944791 0-1.417187 0zm-315.796619 199.351044c-146.44271 91.644793-243.520055 254.385159-243.520055 440.745318 0 274.69818 210.924742 498.141412 480.190371 518.454433v81.488283c0 32.359115 36.374479 51.254948 62.828646 32.831511l200.059638-140.065367c22.675001-15.82526 22.675001-49.601563 0-65.426824l-200.059638-140.065366c-6.613541-4.48776-14.408073-7.085937-22.438802-7.085937-22.438802-.236198-40.389844 17.714844-40.389844 39.917448v77.945313c-202.894013-19.840625-360.201828-189.903127-360.201828-397.993494 0-147.151304 78.653908-275.170577 196.280472-344.612765l-24.800782-17.478646c-27.398959-19.132031-43.224219-48.184376-47.948178-78.653907zm0 0" fill="none" stroke="#212121" stroke-linecap="round" stroke-width="11.338583" transform="scale(.016538)"/></svg>

<?xml version="1.0" encoding="UTF-8"?>
<svg xmlns="http://www.w3.org/2000/svg" xmlns:xlink="http://www.w3.org/1999/xlink" width="32pt" height="32pt" viewBox="0 0 32 32" version="1.1">
<defs>
<radialGradient id="radial0" gradientUnits="userSpaceOnUse" cx="450.90894" cy="189.57936" fx="450.90894" fy="189.57936" r="21.166656" gradientTransform="matrix(0.00000017417,-0.0781325,-0.140638,-0.000000101539,44.523152,63.595332)">
<stop offset="0" style="stop-color:rgb(0%,0%,0%);stop-opacity:0.313725;"/>
<stop offset="0.222222" style="stop-color:rgb(0%,0%,0%);stop-opacity:0.27451;"/>
<stop offset="1" style="stop-color:rgb(0%,0%,0%);stop-opacity:0;"/>
</radialGradient>
<radialGradient id="radial1" gradientUnits="userSpaceOnUse" cx="450.90894" cy="189.57936" fx="450.90894" fy="189.57936" r="21.166656" gradientTransform="matrix(-0.00000017417,0.0781325,0.140638,0.000000101539,-12.770121,-7.527481)">
<stop offset="0" style="stop-color:rgb(0%,0%,0%);stop-opacity:0.313725;"/>
<stop offset="0.222222" style="stop-color:rgb(0%,0%,0%);stop-opacity:0.27451;"/>
<stop offset="1" style="stop-color:rgb(0%,0%,0%);stop-opacity:0;"/>
</radialGradient>
<radialGradient id="radial2" gradientUnits="userSpaceOnUse" cx="450.90894" cy="189.57936" fx="450.90894" fy="189.57936" r="21.166656" gradientTransform="matrix(-0.00000017417,-0.0781325,0.140638,-0.000000101539,-12.770121,63.595332)">
<stop offset="0" style="stop-color:rgb(0%,0%,0%);stop-opacity:0.313725;"/>
<stop offset="0.222222" style="stop-color:rgb(0%,0%,0%);stop-opacity:0.27451;"/>
<stop offset="1" style="stop-color:rgb(0%,0%,0%);stop-opacity:0;"/>
</radialGradient>
<radialGradient id="radial3" gradientUnits="userSpaceOnUse" cx="450.90894" cy="189.57936" fx="450.90894" fy="189.57936" r="21.166656" gradientTransform="matrix(0.00000017417,0.0781325,-0.140638,0.000000101539,44.52315,-7.527482)">
<stop offset="0" style="stop-color:rgb(0%,0%,0%);stop-opacity:0.313725;"/>
<stop offset="0.222222" style="stop-color:rgb(0%,0%,0%);stop-opacity:0.27451;"/>
<stop offset="1" style="stop-color:rgb(0%,0%,0%);stop-opacity:0;"/>
</radialGradient>
<linearGradient id="linear0" gradientUnits="userSpaceOnUse" x1="255.32306" y1="233.5" x2="255.32304" y2="254.66666" gradientTransform="matrix(0.0133601,0,0,0.062506,12.465386,13.438784)">
<stop offset="0" style="stop-color:rgb(0%,0%,0%);stop-opacity:0.27451;"/>
<stop offset="1" style="stop-color:rgb(0%,0%,0%);stop-opacity:0;"/>
</linearGradient>
<linearGradient id="linear1" gradientUnits="userSpaceOnUse" x1="254" y1="-168.66667" x2="254" y2="233.5" >
<stop offset="0" style="stop-color:rgb(68.235294%,83.529412%,50.588235%);stop-opacity:1;"/>
<stop offset="1" style="stop-color:rgb(61.176471%,80%,39.607843%);stop-opacity:1;"/>
</linearGradient>
<linearGradient id="linear2" gradientUnits="userSpaceOnUse" x1="960" y1="1695.1182" x2="960" y2="175.11812" gradientTransform="matrix(0.016538,0,0,0.016538,0,0)">
<stop offset="0" style="stop-color:rgb(25.882353%,25.882353%,25.882353%);stop-opacity:1;"/>
<stop offset="1" style="stop-color:rgb(38.039216%,38.039216%,38.039216%);stop-opacity:1;"/>
</linearGradient>
</defs>
<g id="surface1">
<path style=" stroke:none;fill-rule:nonzero;fill:url(#radial0);" d="M 18.191406 28.035156 L 20.839844 28.035156 L 20.839844 26.710938 L 18.191406 26.710938 Z M 18.191406 28.035156 "/>
<path style=" stroke:none;fill-rule:nonzero;fill:url(#radial1);" d="M 13.5625 28.035156 L 10.914062 28.035156 L 10.914062 29.355469 L 13.5625 29.355469 Z M 13.5625 28.035156 "/>
<path style=" stroke:none;fill-rule:nonzero;fill:url(#radial2);" d="M 13.5625 28.035156 L 10.914062 28.035156 L 10.914062 26.710938 L 13.5625 26.710938 Z M 13.5625 28.035156 "/>
<path style=" stroke:none;fill-rule:nonzero;fill:url(#radial3);" d="M 18.191406 28.035156 L 20.839844 28.035156 L 20.839844 29.355469 L 18.191406 29.355469 Z M 18.191406 28.035156 "/>
<path style=" stroke:none;fill-rule:nonzero;fill:url(#linear0);" d="M 13.5625 27.703125 L 18.191406 27.703125 L 18.191406 29.355469 L 13.5625 29.355469 Z M 13.5625 27.703125 "/>
<path style="fill-rule:nonzero;fill:url(#linear1);stroke-width:3;stroke-linecap:round;stroke-linejoin:miter;stroke:rgb(20%,20%,20%);stroke-opacity:1;stroke-miterlimit:4;" d="M 253.975747 -168.691922 C 365.027642 -168.691922 455.081542 -78.638022 455.081542 32.413873 C 455.081542 143.465768 365.027642 233.519669 253.975747 233.519669 C 142.923851 233.519669 52.932445 143.465768 52.932445 32.413873 C 52.932445 -78.638022 142.923851 -168.691922 253.975747 -168.691922 Z M 253.975747 -168.691922 " transform="matrix(0.062506,0,0,0.062506,0,13.438783)"/>
<path style=" stroke:none;fill-rule:nonzero;fill:rgb(0%,0%,0%);fill-opacity:0.196078;" d="M 15.875 28.035156 C 8.914062 28.035156 3.308594 22.429688 3.308594 15.464844 C 3.308594 15.425781 3.308594 15.382812 3.308594 15.34375 C 3.375 22.246094 8.953125 27.789062 15.875 27.789062 C 22.796875 27.789062 28.378906 22.246094 28.445312 15.34375 C 28.445312 15.382812 28.445312 15.425781 28.445312 15.464844 C 28.445312 22.429688 22.839844 28.035156 15.875 28.035156 Z M 15.875 28.035156 "/>
<path style=" stroke:none;fill-rule:nonzero;fill:rgb(100%,100%,100%);fill-opacity:0.392157;" d="M 15.875 2.894531 C 8.914062 2.894531 3.308594 8.5 3.308594 15.464844 C 3.308594 15.507812 3.308594 15.546875 3.308594 15.589844 C 3.375 8.683594 8.953125 3.140625 15.875 3.140625 C 22.796875 3.140625 28.378906 8.683594 28.445312 15.589844 C 28.445312 15.546875 28.445312 15.507812 28.445312 15.464844 C 28.445312 8.5 22.839844 2.894531 15.875 2.894531 Z M 15.875 2.894531 "/>
<path style=" stroke:none;fill-rule:nonzero;fill:rgb(12.941176%,12.941176%,12.941176%);fill-opacity:1;" d="M 15.875 2.800781 C 8.863281 2.800781 3.214844 8.453125 3.214844 15.464844 C 3.214844 22.476562 8.863281 28.128906 15.875 28.128906 C 22.890625 28.128906 28.539062 22.476562 28.539062 15.464844 C 28.539062 8.453125 22.890625 2.800781 15.875 2.800781 Z M 15.875 2.988281 C 22.789062 2.988281 28.351562 8.550781 28.351562 15.464844 C 28.351562 22.378906 22.789062 27.941406 15.875 27.941406 C 8.964844 27.941406 3.402344 22.378906 3.402344 15.464844 C 3.402344 8.550781 8.964844 2.988281 15.875 2.988281 Z M 15.875 2.988281 "/>
<path style=" stroke:none;fill-rule:nonzero;fill:url(#linear2);" d="M 16.195312 4.878906 C 16.070312 4.882812 15.945312 4.917969 15.828125 5 L 12.519531 7.316406 C 12.144531 7.578125 12.144531 8.136719 12.519531 8.398438 L 15.828125 10.714844 C 15.9375 10.789062 16.066406 10.832031 16.199219 10.832031 C 16.570312 10.835938 16.867188 10.539062 16.867188 10.171875 L 16.867188 8.882812 C 20.222656 9.210938 22.824219 12.023438 22.824219 15.464844 C 22.824219 17.898438 21.523438 20.015625 19.578125 21.164062 L 19.988281 21.453125 C 20.441406 21.769531 20.703125 22.25 20.78125 22.757812 C 23.203125 21.238281 24.808594 18.546875 24.808594 15.464844 C 24.808594 10.921875 21.320312 7.226562 16.867188 6.890625 L 16.867188 5.542969 C 16.867188 5.15625 16.558594 4.886719 16.21875 4.878906 C 16.210938 4.878906 16.203125 4.878906 16.195312 4.878906 Z M 10.972656 8.175781 C 8.550781 9.691406 6.945312 12.382812 6.945312 15.464844 C 6.945312 20.007812 10.433594 23.703125 14.886719 24.039062 L 14.886719 25.386719 C 14.886719 25.921875 15.488281 26.234375 15.925781 25.929688 L 19.234375 23.613281 C 19.609375 23.351562 19.609375 22.792969 19.234375 22.53125 L 15.925781 20.214844 C 15.816406 20.140625 15.6875 20.097656 15.554688 20.097656 C 15.183594 20.09375 14.886719 20.390625 14.886719 20.757812 L 14.886719 22.046875 C 11.53125 21.71875 8.929688 18.90625 8.929688 15.464844 C 8.929688 13.03125 10.230469 10.914062 12.175781 9.765625 L 11.765625 9.476562 C 11.3125 9.160156 11.050781 8.679688 10.972656 8.175781 Z M 10.972656 8.175781 "/>
<path style=" stroke:none;fill-rule:nonzero;fill:rgb(100%,100%,100%);fill-opacity:0.392157;" d="M 16.195312 4.878906 C 16.070312 4.882812 15.945312 4.917969 15.828125 5 L 12.519531 7.316406 C 12.28125 7.484375 12.195312 7.769531 12.261719 8.023438 C 12.296875 7.878906 12.382812 7.742188 12.519531 7.648438 L 15.828125 5.332031 C 15.945312 5.25 16.070312 5.214844 16.195312 5.210938 C 16.203125 5.210938 16.210938 5.210938 16.21875 5.210938 C 16.558594 5.21875 16.867188 5.488281 16.867188 5.875 L 16.867188 5.542969 C 16.867188 5.15625 16.558594 4.886719 16.21875 4.878906 C 16.210938 4.878906 16.203125 4.878906 16.195312 4.878906 Z M 16.867188 6.890625 L 16.867188 7.222656 C 21.265625 7.554688 24.71875 11.164062 24.804688 15.625 C 24.804688 15.570312 24.808594 15.519531 24.808594 15.464844 C 24.808594 10.921875 21.320312 7.226562 16.867188 6.890625 Z M 10.972656 8.175781 C 8.550781 9.691406 6.945312 12.382812 6.945312 15.464844 C 6.945312 15.519531 6.945312 15.574219 6.949219 15.628906 C 7.003906 12.617188 8.59375 9.996094 10.972656 8.503906 C 11.050781 9.011719 11.3125 9.492188 11.765625 9.808594 L 11.925781 9.921875 C 12.007812 9.867188 12.089844 9.816406 12.175781 9.765625 L 11.765625 9.476562 C 11.3125 9.160156 11.050781 8.679688 10.972656 8.175781 Z M 22.820312 15.699219 C 22.738281 18.035156 21.460938 20.050781 19.578125 21.164062 L 19.828125 21.339844 C 21.574219 20.203125 22.742188 18.261719 22.820312 16.03125 C 22.820312 16.054688 22.820312 16.078125 22.820312 16.101562 C 22.820312 16.046875 22.824219 15.992188 22.824219 15.9375 C 22.824219 15.855469 22.820312 15.777344 22.820312 15.699219 Z M 8.933594 15.699219 C 8.933594 15.777344 8.929688 15.859375 8.929688 15.9375 C 8.929688 15.992188 8.929688 16.050781 8.933594 16.105469 C 8.933594 16.082031 8.933594 16.058594 8.933594 16.03125 C 9.050781 19.367188 11.609375 22.058594 14.886719 22.378906 L 14.886719 22.046875 C 11.609375 21.726562 9.050781 19.035156 8.933594 15.699219 Z M 15.554688 20.097656 C 15.183594 20.09375 14.886719 20.390625 14.886719 20.757812 L 14.886719 21.089844 C 14.886719 20.722656 15.183594 20.421875 15.554688 20.425781 C 15.6875 20.429688 15.816406 20.46875 15.925781 20.546875 L 19.234375 22.863281 C 19.371094 22.957031 19.457031 23.09375 19.492188 23.238281 C 19.558594 22.984375 19.472656 22.699219 19.234375 22.53125 L 15.925781 20.214844 C 15.816406 20.140625 15.6875 20.097656 15.554688 20.097656 Z M 15.554688 20.097656 "/>
<path style=" stroke:none;fill-rule:nonzero;fill:rgb(0%,0%,0%);fill-opacity:0.235294;" d="M 12.328125 8.15625 C 12.164062 8.441406 12.226562 8.824219 12.519531 9.027344 L 15.828125 11.34375 C 15.9375 11.421875 16.066406 11.460938 16.199219 11.464844 C 16.570312 11.46875 16.867188 11.167969 16.867188 10.800781 L 16.867188 10.140625 C 16.867188 10.507812 16.570312 10.804688 16.199219 10.800781 C 16.066406 10.800781 15.9375 10.757812 15.828125 10.683594 L 12.519531 8.367188 C 12.4375 8.308594 12.375 8.234375 12.328125 8.15625 Z M 16.867188 8.851562 L 16.867188 9.511719 C 20.113281 9.832031 22.652344 12.472656 22.816406 15.761719 C 22.820312 15.652344 22.824219 15.542969 22.824219 15.433594 C 22.824219 11.992188 20.222656 9.179688 16.867188 8.851562 Z M 11.691406 10.050781 C 10.015625 11.25 8.929688 13.210938 8.929688 15.433594 C 8.929688 15.542969 8.933594 15.652344 8.9375 15.761719 C 9.050781 13.46875 10.320312 11.492188 12.175781 10.394531 L 11.765625 10.105469 C 11.738281 10.089844 11.714844 10.070312 11.691406 10.050781 Z M 24.800781 15.761719 C 24.691406 18.703125 23.117188 21.261719 20.78125 22.722656 C 20.710938 22.246094 20.46875 21.792969 20.0625 21.476562 C 19.90625 21.589844 19.746094 21.695312 19.578125 21.792969 L 19.988281 22.082031 C 20.441406 22.398438 20.703125 22.878906 20.78125 23.386719 C 23.203125 21.867188 24.808594 19.175781 24.808594 16.09375 C 24.808594 15.984375 24.804688 15.871094 24.800781 15.761719 Z M 6.953125 15.765625 C 6.949219 15.875 6.945312 15.984375 6.945312 16.09375 C 6.945312 20.636719 10.433594 24.332031 14.886719 24.667969 L 14.886719 24.007812 C 10.542969 23.679688 7.117188 20.152344 6.953125 15.765625 Z M 19.425781 23.371094 C 19.378906 23.453125 19.316406 23.523438 19.234375 23.582031 L 15.925781 25.898438 C 15.488281 26.203125 14.886719 25.890625 14.886719 25.355469 L 14.886719 26.015625 C 14.886719 26.550781 15.488281 26.867188 15.925781 26.558594 L 19.234375 24.242188 C 19.527344 24.039062 19.589844 23.65625 19.425781 23.371094 Z M 19.425781 23.371094 "/>
<path style="fill:none;stroke-width:11.338583;stroke-linecap:round;stroke-linejoin:miter;stroke:rgb(12.941176%,12.941176%,12.941176%);stroke-opacity:1;stroke-miterlimit:4;" d="M 979.276575 295.011202 C 971.718241 295.2474 964.159908 297.373181 957.07397 302.333337 L 757.014332 442.398703 C 734.339332 458.223964 734.339332 492.000267 757.014332 507.825527 L 957.07397 647.890894 C 963.687512 652.378654 971.482043 654.976831 979.512773 654.976831 C 1001.951575 655.213029 1019.902617 637.261987 1019.902617 615.059383 L 1019.902617 537.114069 C 1222.79663 556.954695 1380.104444 727.017197 1380.104444 935.107564 C 1380.104444 1082.258868 1301.450537 1210.27814 1183.823973 1279.720329 L 1208.624755 1297.198975 C 1236.023713 1316.331006 1251.848974 1345.38335 1256.572932 1376.08908 C 1403.015643 1284.208089 1500.092988 1121.467722 1500.092988 935.107564 C 1500.092988 660.409383 1289.168245 436.966151 1019.902617 416.65313 L 1019.902617 335.164848 C 1019.902617 311.781254 1001.242981 295.483597 980.693762 295.011202 C 980.221367 295.011202 979.748971 295.011202 979.276575 295.011202 Z M 663.479956 494.362246 C 517.037246 586.007039 419.959901 748.747405 419.959901 935.107564 C 419.959901 1209.805744 630.884643 1433.248976 900.150272 1453.561997 L 900.150272 1535.05028 C 900.150272 1567.409395 936.524751 1586.305228 962.978918 1567.881791 L 1163.038556 1427.816424 C 1185.713557 1411.991164 1185.713557 1378.214861 1163.038556 1362.3896 L 962.978918 1222.324234 C 956.365377 1217.836474 948.570845 1215.238297 940.540116 1215.238297 C 918.101314 1215.002099 900.150272 1232.953141 900.150272 1255.155745 L 900.150272 1333.101058 C 697.256259 1313.260433 539.948444 1143.197931 539.948444 935.107564 C 539.948444 787.95626 618.602352 659.936987 736.228916 590.494799 L 711.428134 573.016153 C 684.029175 553.884122 668.203915 524.831777 663.479956 494.362246 Z M 663.479956 494.362246 " transform="matrix(0.016538,0,0,0.016538,0,0)"/>
</g>
</svg>
